assets/img/braze_icons/signal-02.svg

<svg fill="none" height="24" viewBox="0 0 24 24" width="24" xmlns="http://www.w3.org/2000/svg"><g fill="#801ed7"><path d="m5.63579 2.22185c.39053.39052.39053 1.02369 0 1.41421-3.51471 3.51472-3.51471 9.21324 0 12.72794.39053.3905.39053 1.0237 0 1.4142-.39052.3905-1.02368.3905-1.41421 0-4.2957661-4.2958-4.2957661-11.26058 0-15.55635.39053-.39053 1.02369-.39053 1.41421 0z"/><path d="m8.46444 6.46452c.39053-.39052.39053-1.02369 0-1.41421-.39052-.39052-1.02369-.39052-1.41421 0-2.73367 2.73367-2.73367 7.16579 0 9.89949.39052.3905 1.02369.3905 1.41421 0 .39053-.3905.39053-1.0237 0-1.4142-1.95262-1.9526-1.95262-5.11845 0-7.07108z"/><path d="m16.9498 5.05031c-.3906-.39052-1.0237-.39052-1.4143 0-.3905.39052-.3905 1.02369 0 1.41421 1.9527 1.95263 1.9527 5.11848 0 7.07108-.3905.3905-.3905 1.0237 0 1.4142.3906.3905 1.0237.3905 1.4143 0 2.7336-2.7337 2.7336-7.16582 0-9.89949z"/><path d="m19.7784 2.22185c-.3906-.39053-1.0237-.39053-1.4142 0-.3906.39052-.3906 1.02369 0 1.41421 3.5147 3.51472 3.5147 9.21324 0 12.72794-.3906.3905-.3906 1.0237 0 1.4142.3905.3905 1.0236.3905 1.4142 0 4.2957-4.2958 4.2957-11.26058 0-15.55635z"/><path clip-rule="evenodd" d="m13 12.8294c1.1652-.4118 2-1.5231 2-2.8293 0-1.65686-1.3432-3.00001-3-3.00001-1.6569 0-3.00002 1.34315-3.00002 3.00001 0 1.3062.8348 2.4175 2.00002 2.8293v8.1707c0 .5523.4477 1 1 1s1-.4477 1-1z" fill-rule="evenodd"/></g></svg>

<svg width="24" height="24" viewBox="0 0 24 24" fill="none" xmlns="http://www.w3.org/2000/svg">
<path d="M5.63579 2.22185C6.02632 2.61237 6.02632 3.24554 5.63579 3.63606C2.12108 7.15078 2.12108 12.8493 5.63579 16.364C6.02632 16.7545 6.02632 17.3877 5.63579 17.7782C5.24527 18.1687 4.61211 18.1687 4.22158 17.7782C-0.0741861 13.4824 -0.0741861 6.51762 4.22158 2.22185C4.61211 1.83132 5.24527 1.83132 5.63579 2.22185Z" fill="#801ED7"/>
<path d="M8.46444 6.46452C8.85497 6.074 8.85497 5.44083 8.46444 5.05031C8.07392 4.65979 7.44075 4.65979 7.05023 5.05031C4.31656 7.78398 4.31656 12.2161 7.05023 14.9498C7.44075 15.3403 8.07392 15.3403 8.46444 14.9498C8.85497 14.5593 8.85497 13.9261 8.46444 13.5356C6.51182 11.583 6.51182 8.41715 8.46444 6.46452Z" fill="#801ED7"/>
<path d="M16.9498 5.05031C16.5592 4.65979 15.9261 4.65979 15.5355 5.05031C15.145 5.44083 15.145 6.074 15.5355 6.46452C17.4882 8.41715 17.4882 11.583 15.5355 13.5356C15.145 13.9261 15.145 14.5593 15.5355 14.9498C15.9261 15.3403 16.5592 15.3403 16.9498 14.9498C19.6834 12.2161 19.6834 7.78398 16.9498 5.05031Z" fill="#801ED7"/>
<path d="M19.7784 2.22185C19.3878 1.83132 18.7547 1.83132 18.3642 2.22185C17.9736 2.61237 17.9736 3.24554 18.3642 3.63606C21.8789 7.15078 21.8789 12.8493 18.3642 16.364C17.9736 16.7545 17.9736 17.3877 18.3642 17.7782C18.7547 18.1687 19.3878 18.1687 19.7784 17.7782C24.0741 13.4824 24.0741 6.51762 19.7784 2.22185Z" fill="#801ED7"/>
<path fill-rule="evenodd" clip-rule="evenodd" d="M13 12.8294C14.1652 12.4176 15 11.3063 15 10.0001C15 8.34324 13.6568 7.00009 12 7.00009C10.3431 7.00009 8.99998 8.34324 8.99998 10.0001C8.99998 11.3063 9.83478 12.4176 11 12.8294V21.0001C11 21.5524 11.4477 22.0001 12 22.0001C12.5523 22.0001 13 21.5524 13 21.0001V12.8294Z" fill="#801ED7"/>
</svg>
